!!!COM: des Prez, Josquin
!!!CDT: ~1450-1521/08/27
!!!OPR: Missa Faisant regretz
!!!ONM: 4
!!!OTL: Sanctus
!!!AGN: Mass; Sanctus
!!!SCT: NJE 8.1
!!!SCA: New Josquin Edition 8.1
!!!voices: 4
**kern	**text	**kern	**text	**kern	**text	**kern	**text
*staff4	*staff4	*staff3	*staff3	*staff2	*staff2	*staff1	*staff1
*Ivox	*	*Ivox	*	*Ivox	*	*Ivox	*
*I"Bassus	*	*I"Tenor	*	*I"Altus	*	*I"Superius	*
*I'B	*	*I'T	*	*I'A	*	*I'S	*
*>[A,B,C,D]	*>[A,B,C,D]	*>[A,B,C,D]	*>[A,B,C,D]	*>[A,B,C,D]	*>[A,B,C,D]	*>[A,B,C,D]	*>[A,B,C,D]
*>A	*>A	*>A	*>A	*>A	*>A	*>A	*>A
*clefF4	*	*clefGv2	*	*clefGv2	*	*clefG2	*
*k[b-]	*	*k[b-]	*	*k[b-]	*	*k[b-]	*
*M3/1	*	*M3/1	*	*M3/1	*	*M3/1	*
*met(O)	*	*met(O)	*	*met(O)	*	*met(O)	*
!!section: Sanctus
!!!OMD: Sanctus
=1-	=1-	=1-	=1-	=1-	=1-	=1-	=1-
0.r	.	0.B-	Sanc-	1.B-	Sanc-	0.r	.
.	.	.	.	2G/	.	.	.
.	.	.	.	1G	-tus,	.	.
=2	=2	=2	=2	=2	=2	=2	=2
0.r	.	0.G	.	1r	.	1.b-	Sanc-
.	.	.	.	1.g	sanc-	.	.
.	.	.	.	.	.	2g/	.
.	.	.	.	.	.	1g	-tus,
.	.	.	.	2e\	.	.	.
=3	=3	=3	=3	=3	=3	=3	=3
0.r	.	0.A	.	2.e\	.	2r	.
.	.	.	.	.	.	1cc	sanc-
.	.	.	.	4c\	.	.	.
.	.	.	.	0c	-tus,	.	.
.	.	.	.	.	.	2a/	.
.	.	.	.	.	.	1a	-tus,
=4	=4	=4	=4	=4	=4	=4	=4
1.G	Sanc-	0.G	-tus,	2.g\	sanc-	2r	.
.	.	.	.	.	.	1b-	sanc-
.	.	.	.	4f\	.	.	.
.	.	.	.	2d\	.	.	.
2E-i\	.	.	.	2.e-\	.	2g/	.
1E-i	-tus,	.	.	.	.	1g	-tus,
.	.	.	.	4d\	.	.	.
.	.	.	.	2B-\	.	.	.
=5	=5	=5	=5	=5	=5	=5	=5
2r	.	0.e-	sanc-	2c\	.	1r	.
1E-i	sanc-	.	.	2G/	-tus,	.	.
.	.	.	.	2r	.	1.g	sanc-
2C/	.	.	.	2.c\	sanc-	.	.
1C	-tus,	.	.	.	.	.	.
.	.	.	.	4B-\	.	.	.
.	.	.	.	2G/	.	2e-/	.
=6	=6	=6	=6	=6	=6	=6	=6
2r	.	0.c	.	2A/	.	2.e-i/	.
1C	sanc-	.	.	2G/	.	.	.
.	.	.	.	.	.	4c/	.
.	.	.	.	1.A	.	2c/	.
2AA/	.	.	.	.	.	2.cc\	.
1AA	-tus,	.	.	.	.	.	.
.	.	.	.	.	.	4b-\	.
.	.	.	.	2F/	.	2cc\	.
=7	=7	=7	=7	=7	=7	=7	=7
2r	.	0.d	.	1F	-tus,	2a/	.
1BB-	sanc-	.	.	.	.	2.dd\	.
.	.	.	.	2r	.	.	.
.	.	.	.	.	.	4cc\	.
2GG/	.	.	.	2.G/	sanc-	4b-\	.
.	.	.	.	.	.	4a/	.
1GG	-tus,	.	.	.	.	1b-	.
.	.	.	.	4F/	.	.	.
.	.	.	.	2G/	.	.	.
=8	=8	=8	=8	=8	=8	=8	=8
2r	.	0.c	-tus,	2A/	.	1cc	-tus,
1C	sanc-	.	.	2G/	.	.	.
.	.	.	.	1.A	.	2r	.
2AA/	.	.	.	.	.	2.cc\	sanc-
1AA	-tus,	.	.	.	.	.	.
.	.	.	.	.	.	4b-\	.
.	.	.	.	2F/	.	4a/	.
.	.	.	.	.	.	4g/	.
=9	=9	=9	=9	=9	=9	=9	=9
2r	.	0.f	do-	1F	-tus,	2.a/	.
1D	sanc-	.	.	.	.	.	.
.	.	.	.	.	.	4d/	.
.	.	.	.	2r	.	0d	-tus,
2BB-/	.	.	.	1B-	do-	.	.
1BB-	-tus,	.	.	.	.	.	.
.	.	.	.	2B-\	-mi-	.	.
=10	=10	=10	=10	=10	=10	=10	=10
2r	.	0.d	.	2B-\	-nus	1.dd	do-
1B-	do-	.	.	2.G/	de-	.	.
.	.	.	.	4F/	.	.	.
2G\	-mi-	.	.	4G/	.	2b-\	-mi-
.	.	.	.	4A/	.	.	.
1G	-nus,	.	.	4B-\	.	2.b-\	-nus
.	.	.	.	4c\	.	.	.
.	.	.	.	4d\	.	.	.
.	.	.	.	4B-\	.	4g/	.
=11	=11	=11	=11	=11	=11	=11	=11
2r	.	0.e	-mi-	1c	-us,	2.g/	de-
1c	de-	.	.	.	.	.	.
.	.	.	.	.	.	4a/	.
.	.	.	.	1r	.	2g/	.
2A\	.	.	.	.	.	2.cc\	.
1A	-us,	.	.	1c	do-	.	.
.	.	.	.	.	.	4b-\	.
.	.	.	.	.	.	4a/	.
.	.	.	.	.	.	4g/	.
=12	=12	=12	=12	=12	=12	=12	=12
2r	.	0.d	-nus	2d\	-mi-	4f/	.
.	.	.	.	.	.	4d/	.
1B-	do-	.	.	2.G/	-nus	1dd	.
.	.	.	.	4F/	.	.	.
2G\	-mi-	.	.	4G/	.	2b-\	.
.	.	.	.	4A/	.	.	.
1G	-nus	.	.	4B-\	.	1b-	-us,
.	.	.	.	4c\	.	.	.
.	.	.	.	4d\	.	.	.
.	.	.	.	4B-\	.	.	.
=13	=13	=13	=13	=13	=13	=13	=13
2r	.	0.c	de-	2.c\	de-	2r	.
1A	de-	.	.	.	.	1cc	de-
.	.	.	.	4A/	.	.	.
.	.	.	.	1.A	.	.	.
2F\	.	.	.	.	.	2a/	.
1F	-us,	.	.	.	.	1a	-us,
.	.	.	.	2F/	.	.	.
=14	=14	=14	=14	=14	=14	=14	=14
2r	.	0.A	.	1F	-us,	2r	.
1F	de-	.	.	.	.	1a	de-
.	.	.	.	1.f	de-	.	.
2D\	.	.	.	.	.	2f/	.
1D	-us,	.	.	.	.	[1f	.
.	.	.	.	2d\	.	.	.
=15	=15	=15	=15	=15	=15	=15	=15
2r	.	0.B-	.	1d	-us	2f/]	.
1BB-	de-	.	.	.	.	2d/	.
.	.	.	.	2r	.	1d	-us,
2GG/	.	.	.	2.d\	sa-	.	.
1GG	-us	.	.	.	.	2r	.
.	.	.	.	4c\	.	.	.
.	.	.	.	4d\	.	2g/	sa-
.	.	.	.	4e\	.	.	.
=16	=16	=16	=16	=16	=16	=16	=16
2r	.	0.A	-us	2.f\	.	1a	.
2.D\	sa-	.	.	.	.	.	.
.	.	.	.	4e\	.	.	.
.	.	.	.	2f\	.	2.f/	.
4C/	.	.	.	.	.	.	.
4D\	.	.	.	2d\	-ba-	.	.
4E\	.	.	.	.	.	4g/	.
4F\	.	.	.	1c	-oth,	1a	.
4G\	.	.	.	.	.	.	.
4A\	.	.	.	.	.	.	.
4F\	.	.	.	.	.	.	.
=17	=17	=17	=17	=17	=17	=17	=17
2G\	.	0.B-	sa-	2.B-\	sa-	1.d	.
2.GG/	.	.	.	.	.	.	.
.	.	.	.	4A/	.	.	.
.	.	.	.	2.G/	.	.	.
4FF/	.	.	.	.	.	.	.
4GG/	.	.	.	.	.	2d/	-ba-
4AA/	.	.	.	8F/L	.	.	.
.	.	.	.	8E/J	.	.	.
4BB-/	.	.	.	2D/	.	1d	-oth,
4C/	.	.	.	.	.	.	.
4D\	.	.	.	2d\	.	.	.
4BB-/	.	.	.	.	.	.	.
=18	=18	=18	=18	=18	=18	=18	=18
0C	-ba-	0.G	.	2e\	.	2r	.
.	.	.	.	2c\	.	2.g/	sa-
.	.	.	.	1e	-ba-	.	.
.	.	.	.	.	.	4f/	.
.	.	.	.	.	.	4g/	.
.	.	.	.	.	.	4a/	.
1GG	-oth,	.	.	1d	-oth,	4b-\	.
.	.	.	.	.	.	4cc\	.
.	.	.	.	.	.	4dd\	.
.	.	.	.	.	.	4b-\	.
=19	=19	=19	=19	=19	=19	=19	=19
2r	.	0.A	-ba-	2c\	sa-	2cc\	.
2.D\	sa-	.	.	2d\	.	2.f/	.
.	.	.	.	2.f\	-ba-	.	.
4C/	.	.	.	.	.	4e/	.
4D\	.	.	.	.	.	4f/	.
4E\	.	.	.	4e\	.	4g/	.
4F\	.	.	.	1c	.	4a/	.
4G\	.	.	.	.	.	4b-\	.
4A\	.	.	.	.	.	4cc\	.
4F\	.	.	.	.	.	4a/	.
=20	=20	=20	=20	=20	=20	=20	=20
1.G	.	[0.Gl	-oth,	0B-	-oth,	2b-\	.
.	.	.	.	.	.	2.g/	.
.	.	.	.	.	.	4f/	.
2GG/	.	.	.	.	.	4g/	.
.	.	.	.	.	.	4a/	.
1GG	.	.	.	1d	sa-	4b-\	.
.	.	.	.	.	.	4cc\	.
.	.	.	.	.	.	4dd\	.
.	.	.	.	.	.	4b-\	.
=21	=21	=21	=21	=21	=21	=21	=21
0C	.	0.G_	.	1c	.	1.cc	.
.	.	.	.	0e-i	-ba-	.	.
.	.	.	.	.	.	2g/	.
1C	-ba-	.	.	.	.	1cc	-ba-
=22	=22	=22	=22	=22	=22	=22	=22
0.GGl	-oth.	0.G]	.	0.dl	-oth.	0.b-l	-oth.
!!LO:LB:i:g=z
=23||	=23||	=23||	=23||	=23||	=23||	=23||	=23||
*>B	*>B	*>B	*>B	*>B	*>B	*>B	*>B
*clefF4	*	*clefGv2	*	*clefGv2	*	*clefG2	*
*k[b-]	*	*k[b-]	*	*k[b-]	*	*k[b-]	*
*M2/1	*	*M2/1	*	*M2/1	*	*M2/1	*
*met(C|)	*	*met(C|)	*	*met(C|)	*	*met(C|)	*
!!section: Pleni sunt
!!!OMD: Pleni sunt
1D	Ple-	0r	.	0r	.	0r	.
[1F	.	.	.	.	.	.	.
=24	=24	=24	=24	=24	=24	=24	=24
2F\]	.	0r	.	0r	.	0r	.
2G\	.	.	.	.	.	.	.
2A\	.	.	.	.	.	.	.
[2B-\	.	.	.	.	.	.	.
=25	=25	=25	=25	=25	=25	=25	=25
2B-\]	.	0r	.	1D	Ple-	0r	.
4A\	.	.	.	.	.	.	.
4G\	.	.	.	.	.	.	.
1A	.	.	.	[1F	.	.	.
=26	=26	=26	=26	=26	=26	=26	=26
[0D	-ni	0r	.	2F/]	.	0r	.
.	.	.	.	2G/	.	.	.
.	.	.	.	2A/	.	.	.
.	.	.	.	[2B-\	.	.	.
=27	=27	=27	=27	=27	=27	=27	=27
0D]	.	0r	.	2B-\]	.	1d	Ple-
.	.	.	.	4A/	.	.	.
.	.	.	.	4G/	.	.	.
.	.	.	.	1A	.	[1f	.
=28	=28	=28	=28	=28	=28	=28	=28
0r	.	0r	.	1D	-ni	2f/]	.
.	.	.	.	.	.	2g/	.
.	.	.	.	2r	.	2a/	.
.	.	.	.	[2G/	sunt	[2b-\	.
=29	=29	=29	=29	=29	=29	=29	=29
0r	.	0r	.	2G/]	.	2b-\]	.
.	.	.	.	4F/	.	4a/	.
.	.	.	.	4E/	.	4g/	.
.	.	.	.	2F/	.	1a	.
.	.	.	.	4G/	.	.	.
.	.	.	.	4A/	.	.	.
=30	=30	=30	=30	=30	=30	=30	=30
2r	.	0r	.	1.B-	ce-	0d	-ni
1G	sunt	.	.	.	.	.	.
4F\	.	.	.	4A/	.	.	.
4E\	.	.	.	4G/	.	.	.
=31	=31	=31	=31	=31	=31	=31	=31
2F\	.	0r	.	2A/	.	1r	.
4G\	.	.	.	2G/	.	.	.
4A\	.	.	.	.	.	.	.
[1B-	ce-	.	.	1d	-li	2r	.
.	.	.	.	.	.	[2d/	sunt
=32	=32	=32	=32	=32	=32	=32	=32
2B-\]	.	0r	.	0r	.	2d/]	.
4A\	.	.	.	.	.	4c/	.
4G\	.	.	.	.	.	4B-/	.
2A\	.	.	.	.	.	2c/	.
2D\	.	.	.	.	.	4d/	.
.	.	.	.	.	.	4e/	.
=33	=33	=33	=33	=33	=33	=33	=33
0D	-li	0r	.	2r	.	1.f	ce-
.	.	.	.	1d	et	.	.
.	.	.	.	4c\	.	4e/	.
.	.	.	.	4B-\	.	4d/	.
=34	=34	=34	=34	=34	=34	=34	=34
0r	.	0r	.	2c\	ter-	2e/	.
.	.	.	.	1B-	.	2d/	.
.	.	.	.	.	.	[1g	.
.	.	.	.	4A/	.	.	.
.	.	.	.	4G/	.	.	.
=35	=35	=35	=35	=35	=35	=35	=35
0r	.	0r	.	2A/	.	2g/]	.
.	.	.	.	2D/	.	4f/	.
.	.	.	.	.	.	4e/	.
.	.	.	.	[1d	.	2f/	.
.	.	.	.	.	.	4g/	.
.	.	.	.	.	.	4a/	.
=36	=36	=36	=36	=36	=36	=36	=36
0r	.	0r	.	2d\]	.	1.b-	.
.	.	.	.	4c\	.	.	.
.	.	.	.	4B-\	.	.	.
.	.	.	.	2c\	.	.	.
.	.	.	.	2F/	.	4a/	.
.	.	.	.	.	.	4g/	.
=37	=37	=37	=37	=37	=37	=37	=37
2r	.	0r	.	1.f	.	2a/	.
1D	et	.	.	.	.	2d/	.
.	.	.	.	.	.	1dd	-li
4C/	.	.	.	4e\	.	.	.
4BB-/	.	.	.	4d\	.	.	.
=38	=38	=38	=38	=38	=38	=38	=38
2C/	ter-	0r	.	2e\	.	2r	.
2BB-/	.	.	.	2d\	-ra,	1dd	et
1B-	-ra,	.	.	2r	.	.	.
.	.	.	.	2d\	et	4cc\	.
.	.	.	.	.	.	4b-\	.
=39	=39	=39	=39	=39	=39	=39	=39
2r	.	0r	.	2c\	.	2cc\	ter-
1BB-	et	.	.	1d	ter-	2f/	.
.	.	.	.	.	.	1b-	-ra,
4AA/	.	.	.	4c\	.	.	.
4GG/	.	.	.	4B-\	.	.	.
=40	=40	=40	=40	=40	=40	=40	=40
2AA/	ter-	0r	.	2c\	.	2r	.
2GG/	.	.	.	2B-\	-ra,	1b-	et
1G	-ra,	.	.	2r	.	.	.
.	.	.	.	2B-\	et	4a/	.
.	.	.	.	.	.	4g/	.
=41	=41	=41	=41	=41	=41	=41	=41
2r	.	0r	.	2A/	.	2a/	ter-
1G	et	.	.	1B-	ter-	2d/	.
.	.	.	.	.	.	1g	-ra,
4F\	.	.	.	4A/	.	.	.
4E\	.	.	.	4G/	.	.	.
=42	=42	=42	=42	=42	=42	=42	=42
2F\	ter-	0r	.	2A/	.	2r	.
2G\	.	.	.	2G/	.	1g	et
1A	-ra,	.	.	1c	-ra,	.	.
.	.	.	.	.	.	4f/	.
.	.	.	.	.	.	4e/	.
=43	=43	=43	=43	=43	=43	=43	=43
0r	.	0r	.	2r	.	2f/	ter-
.	.	.	.	1c	et	2g/	.
.	.	.	.	.	.	1a	.
.	.	.	.	4B-\	.	.	.
.	.	.	.	4A/	.	.	.
=44	=44	=44	=44	=44	=44	=44	=44
2r	.	0r	.	2B-\	.	1d	.
1G	et	.	.	2G/	.	.	.
.	.	.	.	2.B-\	ter-	1g	-ra,
4F\	.	.	.	.	.	.	.
4E\	.	.	.	4c\	.	.	.
=45	=45	=45	=45	=45	=45	=45	=45
2F\	ter-	0r	.	2A/	.	2r	.
2G\	.	.	.	2G/	.	1g	et
1A	-ra,	.	.	1c	-ra,	.	.
.	.	.	.	.	.	4f/	.
.	.	.	.	.	.	4e/	.
=46	=46	=46	=46	=46	=46	=46	=46
0r	.	0r	.	2r	.	2f/	ter-
.	.	.	.	1c	et	2g/	.
.	.	.	.	.	.	1a	.
.	.	.	.	4B-\	.	.	.
.	.	.	.	4A/	.	.	.
=47	=47	=47	=47	=47	=47	=47	=47
1r	.	0r	.	2B-\	ter-	2d/	.
.	.	.	.	2c\	.	2e/	.
2D\	et	.	.	2d\	.	2f/	.
2E\	.	.	.	2G/	.	[2g/	.
=48	=48	=48	=48	=48	=48	=48	=48
2F\	ter-	0r	.	2A/	.	4g/]	.
.	.	.	.	.	.	4f/	.
2G\	.	.	.	2B-\	.	2d/	.
1C	.	.	.	1c	.	1e	.
=49	=49	=49	=49	=49	=49	=49	=49
[0G	-ra,	0r	.	0B-	-ra,	[0d	-ra,
=50	=50	=50	=50	=50	=50	=50	=50
0G]	.	0r	.	1r	.	0d]	.
.	.	.	.	1G	glo-	.	.
=51	=51	=51	=51	=51	=51	=51	=51
0r	.	0r	.	1G	-ri-	1d	glo-
.	.	.	.	2.B-\	-a	1d	-ri-
.	.	.	.	4c\	.	.	.
=52	=52	=52	=52	=52	=52	=52	=52
0r	.	0r	.	4d\	.	2.f/	-a
.	.	.	.	4e-i\	.	.	.
.	.	.	.	1d	.	.	.
.	.	.	.	.	.	4g/	.
.	.	.	.	.	.	4a/	.
.	.	.	.	.	.	4b-\	.
.	.	.	.	4c\	.	[2a/	.
.	.	.	.	4B-\	.	.	.
=53	=53	=53	=53	=53	=53	=53	=53
0r	.	0r	.	1A	tu-	2a/]	.
.	.	.	.	.	.	4g/	.
.	.	.	.	.	.	4f/	.
.	.	.	.	1G	-a,	1e	tu-
=54	=54	=54	=54	=54	=54	=54	=54
1GG	glo-	0r	.	1r	.	0d	-a,
1GG	-ri-	.	.	1D	glo-	.	.
=55	=55	=55	=55	=55	=55	=55	=55
2.BB-/	-a	0r	.	1D	-ri-	0r	.
4C/	.	.	.	.	.	.	.
4D\	.	.	.	2.F/	-a	.	.
4E-i\	.	.	.	.	.	.	.
[2D\	.	.	.	.	.	.	.
.	.	.	.	4G/	.	.	.
=56	=56	=56	=56	=56	=56	=56	=56
2D\]	.	0r	.	4A/	.	0r	.
.	.	.	.	4B-\	.	.	.
4C/	.	.	.	1A	.	.	.
4BB-/	.	.	.	.	.	.	.
1AA	tu-	.	.	.	.	.	.
.	.	.	.	4G/	.	.	.
.	.	.	.	4F/	.	.	.
=57	=57	=57	=57	=57	=57	=57	=57
1GG	-a,	0r	.	1E	tu-	1r	.
1r	.	.	.	1D	-a,	1d	glo-
=58	=58	=58	=58	=58	=58	=58	=58
1D	glo-	0r	.	1r	.	1d	-ri-
1D	-ri-	.	.	1A	glo-	2.f/	-a
.	.	.	.	.	.	4g/	.
=59	=59	=59	=59	=59	=59	=59	=59
2.F\	-a	0r	.	1A	-ri-	4a/	.
.	.	.	.	.	.	4b-\	.
.	.	.	.	.	.	1a	.
4G\	.	.	.	.	.	.	.
4A\	.	.	.	[1c	-a	.	.
4B-\	.	.	.	.	.	.	.
[2A\	.	.	.	.	.	4g/	.
.	.	.	.	.	.	4f/	.
=60	=60	=60	=60	=60	=60	=60	=60
2A\]	.	0r	.	2c\]	.	2.e/	tu-
4G\	.	.	.	4B-\	.	.	.
4F\	.	.	.	4A/	.	4d/	.
1E	tu-	.	.	2.G/	tu-	1g	.
.	.	.	.	4A/	.	.	.
=61	=61	=61	=61	=61	=61	=61	=61
0D	-a,	0r	.	4B-\	.	1f	-a,
.	.	.	.	4A/	.	.	.
.	.	.	.	1B-	.	.	.
.	.	.	.	.	.	2r	.
.	.	.	.	4A/	.	[2d/	glo-
.	.	.	.	4G/	.	.	.
=62	=62	=62	=62	=62	=62	=62	=62
2r	.	0r	.	2B-\	.	2d/]	.
1D	glo-	.	.	2A/	-a,	2d/	-ri-
.	.	.	.	2r	.	2.f/	-a
2D\	-ri-	.	.	[2A/	glo-	.	.
.	.	.	.	.	.	4g/	.
=63	=63	=63	=63	=63	=63	=63	=63
2.F\	-a	0r	.	2A/]	.	4a/	.
.	.	.	.	.	.	4b-\	.
.	.	.	.	2A/	-ri-	1a	.
4G\	.	.	.	.	.	.	.
4A\	.	.	.	[1c	-a	.	.
4B-\	.	.	.	.	.	.	.
[2A\	.	.	.	.	.	4g/	.
.	.	.	.	.	.	4f/	.
=64	=64	=64	=64	=64	=64	=64	=64
2A\]	.	0r	.	2c\]	.	2.e/	tu-
4G\	.	.	.	4B-\	.	.	.
4F\	.	.	.	4A/	.	4d/	.
1E	tu-	.	.	2.G/	tu-	1g	.
.	.	.	.	4A/	.	.	.
=65	=65	=65	=65	=65	=65	=65	=65
[0Dl	-a.	0r	.	4B-\	.	[0fl	-a.
.	.	.	.	4A/	.	.	.
.	.	.	.	1B-	.	.	.
.	.	.	.	4A/	.	.	.
.	.	.	.	4G/	.	.	.
=66	=66	=66	=66	=66	=66	=66	=66
0D_	.	0r	.	2B-\	.	0f_	.
.	.	.	.	2A/	.	.	.
.	.	.	.	2.d\	.	.	.
.	.	.	.	4c\	.	.	.
=67	=67	=67	=67	=67	=67	=67	=67
0D]	.	0r	.	0Al	-a.	0f]	.
!!LO:LB:i:g=z
=68||	=68||	=68||	=68||	=68||	=68||	=68||	=68||
*>C	*>C	*>C	*>C	*>C	*>C	*>C	*>C
*clefF4	*	*clefGv2	*	*clefGv2	*	*clefG2	*
*k[b-]	*	*k[b-]	*	*k[b-]	*	*k[b-]	*
*M2/1	*	*M2/1	*	*M2/1	*	*M2/1	*
*met(C|)	*	*met(C|)	*	*met(C|)	*	*met(C|)	*
!!section: Osanna
!!!OMD: Osanna
!LO:TX:Z=12:t=B-->T canon (upper 8ve, 3 semibreves)	!	!	!	!	!	!	!
1BB-	O-	0r	.	2r	.	0r	.
.	.	.	.	2D/	O-	.	.
1GG	-san-	.	.	4E/	-san-	.	.
.	.	.	.	4D/	.	.	.
.	.	.	.	[2G/	.	.	.
=69	=69	=69	=69	=69	=69	=69	=69
1AA	.	1r	.	2G/]	.	1r	.
.	.	.	.	2F#i/	.	.	.
1GG	-na,	1B-	O-	[1G	.	2r	.
.	.	.	.	.	.	2d/	O-
=70	=70	=70	=70	=70	=70	=70	=70
0r	.	1G	-san-	2G/]	.	4e/	-san-
.	.	.	.	.	.	4d/	.
.	.	.	.	2E/	.	1g	.
.	.	1A	.	1D	-na,	.	.
.	.	.	.	.	.	2f#i/	.
=71	=71	=71	=71	=71	=71	=71	=71
1C	o-	1G	-na,	2r	.	1g	-na,
.	.	.	.	2E/	o-	.	.
1AA	-san-	1r	.	4F/	-san-	2r	.
.	.	.	.	4E/	.	.	.
.	.	.	.	[2A/	.	2c/	o-
=72	=72	=72	=72	=72	=72	=72	=72
1BB-	.	1r	.	2A/]	.	2.d/	-san-
.	.	.	.	2G/	.	.	.
.	.	.	.	.	.	4e/	.
1AA	-na,	1c	o-	[1A	.	2f/	.
.	.	.	.	.	.	2e/	.
=73	=73	=73	=73	=73	=73	=73	=73
0r	.	1A	-san-	2A/]	.	4f/	.
.	.	.	.	.	.	4e/	.
.	.	.	.	2F/	.	1a	.
.	.	1B-	.	1G	-na,	.	.
.	.	.	.	.	.	2g/	.
=74	=74	=74	=74	=74	=74	=74	=74
1D	o-	1A	-na,	2r	.	1a	-na,
.	.	.	.	2F/	o-	.	.
1BB-	-san-	1r	.	4G/	-san-	2r	.
.	.	.	.	4F/	.	.	.
.	.	.	.	[2B-\	.	2d/	o-
=75	=75	=75	=75	=75	=75	=75	=75
1C	.	1r	.	2B-\]	.	2.e/	-san-
.	.	.	.	2A/	.	.	.
.	.	.	.	.	.	4f/	.
1BB-	-na	1d	o-	[1B-	.	2g/	.
.	.	.	.	.	.	2f/	.
=76	=76	=76	=76	=76	=76	=76	=76
0r	.	1B-	-san-	2B-\]	.	4g/	.
.	.	.	.	.	.	4f/	.
.	.	.	.	4A/	.	1b-	.
.	.	.	.	4G/	.	.	.
.	.	1c	.	1F	.	.	.
.	.	.	.	.	.	2a/	.
=77	=77	=77	=77	=77	=77	=77	=77
1E-	o-	1B-	-na,	2G/	-na,	2b-\	-na,
.	.	.	.	2.e-i\	o-	1g	o-
1C	-san-	1r	.	.	.	.	.
.	.	.	.	4d\	.	.	.
.	.	.	.	[2c\	-san-	[2a/	-san-
=78	=78	=78	=78	=78	=78	=78	=78
1D	.	1r	.	4c\]	.	2a/]	.
.	.	.	.	4A/	.	.	.
.	.	.	.	2B-\	.	2f/	.
1C	-na,	1e-	o-	[1c	-na,	2a/	.
.	.	.	.	.	.	[2g/	.
=79	=79	=79	=79	=79	=79	=79	=79
0r	.	1c	-san-	1c]	.	2g/]	.
.	.	.	.	.	.	1cc	.
.	.	1d	.	2r	.	.	.
.	.	.	.	2G/	o-	2b-\	.
=80	=80	=80	=80	=80	=80	=80	=80
1F	o-	1c	-na,	2A/	-san-	2cc\	.
.	.	.	.	2.F/	.	1a	.
1D	-san-	1r	.	.	.	.	.
.	.	.	.	4D/	.	.	.
.	.	.	.	[2d\	.	2f/	.
=81	=81	=81	=81	=81	=81	=81	=81
1E	.	1r	.	2d\]	.	2g/	.
.	.	.	.	2c\	.	2e/	.
1D	-na	1f	o-	2d\	.	2f/	.
.	.	.	.	2A/	.	[2d/	-na
=82	=82	=82	=82	=82	=82	=82	=82
0r	.	1d	-san-	2B-\	.	2d/]	.
.	.	.	.	2F/	.	1dd	in
.	.	1e	.	2G/	.	.	.
.	.	.	.	2A/	.	2cc#i\	ex-
=83	=83	=83	=83	=83	=83	=83	=83
1BB-	in	1d	-na	2D/	.	1.dd	-cel-
.	.	.	.	2.B-\	.	.	.
1GG	ex-	1r	.	.	.	.	.
.	.	.	.	4A/	.	.	.
.	.	.	.	[2G/	.	2b-\	.
=84	=84	=84	=84	=84	=84	=84	=84
1AA	-cel-	1r	.	2G/]	.	2cc\	.
.	.	.	.	2F#i/	.	2a/	.
1GG	-sis,	1B-	in	1G	-na	2b-\	.
.	.	.	.	.	.	[2g/	.
=85	=85	=85	=85	=85	=85	=85	=85
2r	.	1G	ex-	2.E/	in	4g/]	.
.	.	.	.	.	.	4e/	.
1C	in	.	.	.	.	1e	.
.	.	.	.	4C/	.	.	.
.	.	1A	-cel-	2E/	.	.	.
2AA/	ex-	.	.	2F/	ex-	2c/	.
=86	=86	=86	=86	=86	=86	=86	=86
1BB-	-cel-	1G	-sis,	1D	-cel-	2.d/	.
.	.	.	.	.	.	4e/	.
1AA	-sis,	2r	.	1A	-sis,	2f/	.
.	.	[2c\	in	.	.	2e/	.
=87	=87	=87	=87	=87	=87	=87	=87
2r	.	2c\]	.	2.F/	in	1.f	-sis,
1D	in	2A/	ex-	.	.	.	.
.	.	.	.	4D/	.	.	.
.	.	1B-	-cel-	2F/	.	.	.
2BB-/	ex-	.	.	2G/	ex-	2d/	in
=88	=88	=88	=88	=88	=88	=88	=88
1C	-cel-	1A	-sis,	2.E/	-cel-	1e	ex-
.	.	.	.	4F/	.	.	.
1BB-	-sis,	2r	.	4G/	.	2.d/	-cel-
.	.	.	.	4A/	.	.	.
.	.	[2d\	in	[2B-\	.	.	.
.	.	.	.	.	.	4e/	.
=89	=89	=89	=89	=89	=89	=89	=89
2r	.	2d\]	.	4B-\]	.	2f/	.
.	.	.	.	4A/	.	.	.
1E-	in	2B-\	ex-	4G/	.	1g	.
.	.	.	.	4F/	.	.	.
.	.	1c	-cel-	2G/	.	.	.
2C/	ex-	.	.	2A/	.	2e/	.
=90	=90	=90	=90	=90	=90	=90	=90
1D	-cel-	1B-	-sis,	1F	.	2.f/	.
.	.	.	.	.	.	4g/	.
1C	-sis,	2r	.	1c	-sis,	2a/	.
.	.	[2e-i\	in	.	.	2g/	.
=91	=91	=91	=91	=91	=91	=91	=91
2r	.	2e-i\]	.	2.A/	in	1.a	-sis,
1F	in	2c\	ex-	.	.	.	.
.	.	.	.	4F/	.	.	.
.	.	1d	-cel-	2A/	.	.	.
2D\	ex-	.	.	2B-\	ex-	2f/	ex-
=92	=92	=92	=92	=92	=92	=92	=92
1E	-cel-	1c	-sis,	1G	-cel-	2.g/	-cel-
.	.	.	.	.	.	4a/	.
1D	-sis,	2r	.	2.d\	.	2b-\	.
.	.	[2f\	in	.	.	[2a/	.
.	.	.	.	4c\	.	.	.
=93	=93	=93	=93	=93	=93	=93	=93
0r	.	2f\]	.	2A/	.	2a/]	.
.	.	2d\	ex-	2B-\	.	2f/	.
.	.	1eni	-cel-	2G/	.	2g/	.
.	.	.	.	2A/	.	2e/	.
=94	=94	=94	=94	=94	=94	=94	=94
2r	.	1d	-sis,	2F/	.	2f/	.
1BB-	in	.	.	2G/	.	1d	.
.	.	1r	.	2D/	.	.	.
2GG/	ex-	.	.	[2G/	.	[2e/	.
=95	=95	=95	=95	=95	=95	=95	=95
1AA	-cel-	1r	.	4G/]	.	2e/]	.
.	.	.	.	4E/	.	.	.
.	.	.	.	2F/	.	2c/	.
1GG	-sis,	2r	.	2.G/	.	2e/	.
.	.	[2B-\	in	.	.	[2d/	.
.	.	.	.	4A/	.	.	.
=96	=96	=96	=96	=96	=96	=96	=96
2D\	in	2B-\]	.	2B-\	.	2d/]	.
2E-i\	ex-	2G/	ex-	2c\	.	1g	.
1D	-cel-	1A	-cel-	[1dl	-sis.	.	.
.	.	.	.	.	.	2f#i/	.
=97	=97	=97	=97	=97	=97	=97	=97
0GGl	-sis.	0Gl	-sis.	0d]	.	0gl	-sis.
!!LO:TX:Y=60:rj:i:t=fine
!!LO:LB:i:g=z
=98||	=98||	=98||	=98||	=98||	=98||	=98||	=98||
*>D	*>D	*>D	*>D	*>D	*>D	*>D	*>D
*clefF4	*	*clefGv2	*	*clefGv2	*	*clefG2	*
*k[b-]	*	*k[b-]	*	*k[b-]	*	*k[b-]	*
*M2/1	*	*M2/1	*	*M2/1	*	*M2/1	*
*met(C|)	*	*met(C|)	*	*met(C|)	*	*met(C|)	*
!!section: Benedictus
!!!OMD: Benedictus
0r	.	0B-	Be-	0r	.	2.d/	Be-
.	.	.	.	.	.	4e/	.
.	.	.	.	.	.	2f/	-ne-
.	.	.	.	.	.	[2g/	-dic-
=99	=99	=99	=99	=99	=99	=99	=99
0r	.	1G	-ne-	0r	.	4g/]	.
.	.	.	.	.	.	4a/	.
.	.	.	.	.	.	4b-\	.
.	.	.	.	.	.	4g/	.
.	.	1A	-dic-	.	.	1cc	.
=100	=100	=100	=100	=100	=100	=100	=100
0r	.	1G	-tus,	0r	.	1.b-	.
.	.	[1B-	be-	.	.	.	.
.	.	.	.	.	.	4a/	.
.	.	.	.	.	.	4g/	.
=101	=101	=101	=101	=101	=101	=101	=101
0r	.	2B-\]	.	0r	.	2f/	.
.	.	2G/	-ne	.	.	2g/	.
.	.	2A/	dic-	.	.	2c/	.
.	.	2G/	.	.	.	2e/	.
=102	=102	=102	=102	=102	=102	=102	=102
0r	.	2B-\	.	0r	.	2d/	.
.	.	2G/	.	.	.	1g	.
.	.	1A	.	.	.	.	.
.	.	.	.	.	.	2f#i/	.
=103	=103	=103	=103	=103	=103	=103	=103
0E-	Be-	0G	-tus	2.G/	Be-	0g	-tus
.	.	.	.	4A/	.	.	.
.	.	.	.	2B-\	-ne-	.	.
.	.	.	.	[2c\	-dic-	.	.
=104	=104	=104	=104	=104	=104	=104	=104
1C	-ne-	0r	.	4c\]	.	0r	.
.	.	.	.	4d\	.	.	.
.	.	.	.	4e-i\	.	.	.
.	.	.	.	4c\	.	.	.
1D	-dic-	.	.	1f	.	.	.
=105	=105	=105	=105	=105	=105	=105	=105
1C	-tus,	0r	.	1.e-i	.	0r	.
[1E-i	be-	.	.	.	.	.	.
.	.	.	.	4d\	.	.	.
.	.	.	.	4c\	.	.	.
=106	=106	=106	=106	=106	=106	=106	=106
2E-\]	.	0r	.	2B-\	.	0r	.
2C/	-ne	.	.	2c\	.	.	.
2D\	dic-	.	.	2F/	.	.	.
2C/	.	.	.	2A/	.	.	.
=107	=107	=107	=107	=107	=107	=107	=107
2E-i\	.	0r	.	2G/	.	0r	.
2C/	.	.	.	1c	.	.	.
1D	.	.	.	.	.	.	.
.	.	.	.	2Bni\	.	.	.
=108	=108	=108	=108	=108	=108	=108	=108
0C	-tus	0e-	qui	0c	-tus	1r	.
.	.	.	.	.	.	1g	qui
=109	=109	=109	=109	=109	=109	=109	=109
0r	.	1c	ve-	0r	.	1.a	ve-
.	.	1d	.	.	.	.	.
.	.	.	.	.	.	2f/	.
=110	=110	=110	=110	=110	=110	=110	=110
0r	.	1c	-nit,	0r	.	1a	.
.	.	[1e-i	qui	.	.	[1g	-nit,
=111	=111	=111	=111	=111	=111	=111	=111
0r	.	2e-\]	.	0r	.	2g/]	.
.	.	2c\	.	.	.	2a/	qui
.	.	2d\	ve-	.	.	2f/	ve-
.	.	2c\	.	.	.	2a/	.
=112	=112	=112	=112	=112	=112	=112	=112
0r	.	2e-i\	.	0r	.	2g/	.
.	.	2c\	.	.	.	1a	.
.	.	1d	.	.	.	.	.
.	.	.	.	.	.	4g/	.
.	.	.	.	.	.	4f/	.
=113	=113	=113	=113	=113	=113	=113	=113
0C	qui	0c	-nit	2r	.	0e	-nit
.	.	.	.	2.G/	qui	.	.
.	.	.	.	4F/	.	.	.
.	.	.	.	2G/	.	.	.
=114	=114	=114	=114	=114	=114	=114	=114
1AA	ve-	0r	.	2A/	ve-	0r	.
.	.	.	.	1F	.	.	.
1BB-	.	.	.	.	.	.	.
.	.	.	.	4E/	.	.	.
.	.	.	.	4D/	.	.	.
=115	=115	=115	=115	=115	=115	=115	=115
1AA	-nit,	0r	.	2F/	.	0r	.
.	.	.	.	1E	-nit,	.	.
[1C	qui	.	.	.	.	.	.
.	.	.	.	2A/	qui	.	.
=116	=116	=116	=116	=116	=116	=116	=116
2C/]	.	0r	.	2G/	ve-	0r	.
2AA/	.	.	.	2A/	.	.	.
2BB-/	ve-	.	.	2D/	.	.	.
2AA/	.	.	.	2F/	.	.	.
=117	=117	=117	=117	=117	=117	=117	=117
2C/	.	0r	.	2E/	.	0r	.
2AA/	.	.	.	1A	.	.	.
1BB-	.	.	.	.	.	.	.
.	.	.	.	2G/	.	.	.
=118	=118	=118	=118	=118	=118	=118	=118
0AA	-nit	0c	in	0A	-nit	1r	.
.	.	.	.	.	.	1e	in
=119	=119	=119	=119	=119	=119	=119	=119
0r	.	1A	no-	0r	.	1f	no-
.	.	1B-	-mi-	.	.	1g	-mi-
=120	=120	=120	=120	=120	=120	=120	=120
0r	.	1A	-ne	0r	.	1a	-ne
.	.	[1c	do-	.	.	2g/	do-
.	.	.	.	.	.	[2a/	.
=121	=121	=121	=121	=121	=121	=121	=121
0r	.	2c\]	.	0r	.	4a/]	.
.	.	.	.	.	.	4g/	.
.	.	2A/	.	.	.	4f/	.
.	.	.	.	.	.	4e/	.
.	.	2B-\	.	.	.	2d/	.
.	.	2A/	.	.	.	2f/	.
=122	=122	=122	=122	=122	=122	=122	=122
0r	.	2c\	.	0r	.	2e/	.
.	.	2A/	.	.	.	1f	.
.	.	1B-	-mi-	.	.	.	.
.	.	.	.	.	.	4e/	-mi-
.	.	.	.	.	.	4d/	.
=123	=123	=123	=123	=123	=123	=123	=123
0F	in	0A	-ni,	1r	.	0c	-ni,
.	.	.	.	1A	in	.	.
=124	=124	=124	=124	=124	=124	=124	=124
1D	no-	0r	.	1B-	no-	0r	.
1E	-mi-	.	.	1c	-mi-	.	.
=125	=125	=125	=125	=125	=125	=125	=125
1D	-ne	0r	.	1.d	-ne	0r	.
[1F	do-	.	.	.	.	.	.
.	.	.	.	4c\	.	.	.
.	.	.	.	4B-\	.	.	.
=126	=126	=126	=126	=126	=126	=126	=126
2F\]	.	0r	.	2A/	.	0r	.
2D\	.	.	.	2B-\	do-	.	.
2E\	.	.	.	2G/	.	.	.
2D\	.	.	.	2B-\	.	.	.
=127	=127	=127	=127	=127	=127	=127	=127
2F\	.	0r	.	2A/	.	0r	.
2D\	.	.	.	1d	.	.	.
1E	-mi-	.	.	.	.	.	.
.	.	.	.	2c#i\	-mi-	.	.
=128	=128	=128	=128	=128	=128	=128	=128
0D	-ni,	0f	in	0d	-ne,	1r	.
.	.	.	.	.	.	1a	in
=129	=129	=129	=129	=129	=129	=129	=129
0r	.	1d	no-	0r	.	1b-	no-
.	.	1e	-mi-	.	.	2.g/	-mi-
.	.	.	.	.	.	4a/	.
=130	=130	=130	=130	=130	=130	=130	=130
0r	.	1d	-ne	0r	.	2b-\	-ne
.	.	.	.	.	.	2.a/	do-
.	.	[1f	do-	.	.	.	.
.	.	.	.	.	.	4g/	.
.	.	.	.	.	.	4f/	.
.	.	.	.	.	.	4e/	.
=131	=131	=131	=131	=131	=131	=131	=131
0r	.	2f\]	.	0r	.	2d/	.
.	.	2d\	.	.	.	2f/	.
.	.	2e\	.	.	.	2g/	.
.	.	2d\	.	.	.	2b-\	.
=132	=132	=132	=132	=132	=132	=132	=132
0r	.	2f\	.	0r	.	2a/	.
.	.	2d\	.	.	.	1b-	.
.	.	1e	-mi-	.	.	.	.
.	.	.	.	.	.	4a/	.
.	.	.	.	.	.	4g/	.
=133	=133	=133	=133	=133	=133	=133	=133
1r	.	0d	-ni,	1r	.	2b-\	.
.	.	.	.	.	.	2a/	-mi-
1B-	in	.	.	1d	in	1f	-ni,
=134	=134	=134	=134	=134	=134	=134	=134
1G	no-	0r	.	1e	no-	0r	.
1A	-mi-	.	.	1f	-mi-	.	.
=135	=135	=135	=135	=135	=135	=135	=135
1G	-ne	0r	.	1.g	-ne	0r	.
[1B-	do-	.	.	.	.	.	.
.	.	.	.	4f\	.	.	.
.	.	.	.	4e\	.	.	.
=136	=136	=136	=136	=136	=136	=136	=136
2B-\]	.	0r	.	2d\	.	0r	.
2G\	.	.	.	2e\	do-	.	.
2A\	.	.	.	2f\	.	.	.
2G\	.	.	.	2g\	.	.	.
=137	=137	=137	=137	=137	=137	=137	=137
2B-\	.	0r	.	2d\	.	0r	.
2G\	.	.	.	1g	.	.	.
1A	-mi-	.	.	.	.	.	.
.	.	.	.	2f#i\	-mi-	.	.
=138	=138	=138	=138	=138	=138	=138	=138
*M3/1	*	*M3/1	*	*M3/1	*	*M3/1	*
*met(3)	*	*met(3)	*	*met(3)	*	*met(3)	*
0G	-ni,	1B-	in	0g	-ni,	1d	in
.	.	1G	no-	.	.	1e	no-
1r	.	1A	-mi-	1r	.	1f	-mi-
=139	=139	=139	=139	=139	=139	=139	=139
0G	in	1G	-ne	0d	in	1.g	-ne
.	.	1B-	do-	.	.	.	.
.	.	.	.	.	.	2d/	.
1E	no-	1G	.	1c	no-	1e	.
=140	=140	=140	=140	=140	=140	=140	=140
1D	-mi-	1A	.	1d	-mi-	1f	do-
1.G	-ne	1G	.	0B-	-ne	1g	.
.	.	1B-	.	.	.	1d	.
2F\	.	.	.	.	.	.	.
=141	=141	=141	=141	=141	=141	=141	=141
1E	do-	1G	.	1c	do-	0g	.
0D	-mi-	0A	-mi-	0d	-mi-	.	.
.	.	.	.	.	.	1f#i	-mi-
=142	=142	=142	=142	=142	=142	=142	=142
0.GGl	-ni.	0.Gl	-ni.	0.dl	-ni.	0.gl	-ni.
!!LO:TX:i:Y=60:rj:t=Osanna ut supra
=||	=||	=||	=||	=||	=||	=||	=||
*-	*-	*-	*-	*-	*-	*-	*-
!!!rscale-alt: 1/4
!!!RDF**kern: l=long note in original notation
!!!RDF**kern: i=editorial accidental
!!!ENC: Jesse Rodin; Victoria Chang 2011/09/06; Text: Rodin 2017
!!!END: 2011/09/06/
!!!EED: Jesse Rodin
!!!EEV: 2018/01/19/
!!attribution-level@Jos: 1 (secure, core group [checkmark])
!!!ONB: Translated from MusicXML and edited on 2018/01/19/ by Craig Sapp
!!muse2ps: T^@{OPR}^u^@{ONM}{. }@{OTL}^C^@{COM}\n@{SCT}^i2I150v90,90,90,120c100z18l2700t130
